X: 50
T: Planxty Mrs. O'Conor
C: O'Carolan
B: O'Neill's 666
Z: 1997 by John Chambers <jc:trillian.mit.edu>
Q: "Spirited"
M: 6/8
L: 1/8
K: G
[| G2G FED | E2F G2A | B2G c2A | B2G c2A |\
|: Bcd EFG | ABG FED | EFG AFD | G3 G2A :|
%  Bcd EFG | ABG FED | EFG AFD | G3 G2z |
[| d2d def | g3 g3 | B2B Bcd | e3 e3 |\
|: dcB c2e | d^cd D2D | EFG AFD | G3 G2z :|
%  dcB c2e | d^cd D2D | EFG AFD | G3 G3 ||
[| BGE EGE | AFD DFD | EFG ABG | F3 D2 |\
|: ded dBG | efe efg | dcB AGF | G3 G2z :|
%  ded dBG | efe efHg | dcB AGF | G3 G2z |]

%%sep 1 1 500

